build/assets/images/proyectos/logos/logo-dkv.svg

<svg width="200" height="200" viewBox="0 0 200 200" fill="none" xmlns="http://www.w3.org/2000/svg">
<rect width="200" height="200" fill="white"/>
<path d="M52.9411 85.3614C52.8066 78.7731 50.1176 74.7395 41.2436 74.7395C41.2436 74.7395 36.2688 74.6051 36.2688 74.7395L36.1344 88.4538C29.6806 89.395 22.4201 91.5462 21.0756 91.8151L21.21 66.5378H39.0924C50.3865 66.5378 57.7814 67.3446 62.8907 72.5883C65.1764 74.874 67.3277 78.2353 67.731 84.2857C62.6218 84.5546 58.0503 84.6891 52.9411 85.3614Z" fill="black"/>
<path d="M52.5379 87.9159C61.8152 86.9748 68.1345 86.5714 68.1345 86.5714C68.1345 92.2185 65.8488 96.6554 62.6219 99.3445C58.1849 102.975 53.748 103.916 42.0505 103.916H21.3446V94.5042C22.958 94.1008 29.8152 91.9496 36.269 91.1428C36.269 91.1428 36.1345 95.9832 36.269 95.9832H41.1093C45.5463 95.7143 52.4034 93.6975 52.5379 87.9159Z" fill="black"/>
<path d="M167.63 91.6807C163.059 90.4706 159.025 89.1261 154.992 88.3194L163.328 66.6723H178.655L167.63 91.6807Z" fill="black"/>
<path d="M135.092 84.958L127.16 66.5378H143.832L151.899 87.5126C145.849 86.3025 140.605 85.6303 135.092 84.958Z" fill="black"/>
<path d="M152.84 89.9328C152.84 89.9328 153.513 91.5462 153.647 91.2773L154.185 90.2017C158.353 91.1429 162.118 92.6219 166.823 93.832L162.79 103.782H143.697L136.302 87.2437C141.815 87.916 146.79 88.7227 152.84 89.9328Z" fill="black"/>
<path d="M110.891 83.6135C105.647 83.479 98.7899 83.3446 93.1428 83.3446C93.2773 83.3446 106.319 66.5378 106.319 66.5378H124.605L110.891 83.6135Z" fill="black"/>
<path d="M94.084 85.4958C94.6218 85.4958 105.647 85.4958 111.966 86.0336L126.622 103.782H107.395L94.084 85.4958Z" fill="black"/>
<path d="M90.9916 85.4958V103.513H75.7983V86.1681C80.7731 85.8991 85.6135 85.6302 90.9916 85.4958Z" fill="black"/>
<path d="M90.9916 83.21C85.479 83.3445 80.6386 83.3445 75.6638 83.7478V66.2689H90.9916V83.21Z" fill="black"/>
<path d="M29.5462 115.345C29.6807 115.076 29.8151 114.672 29.6807 114.672C28.874 114 27.395 113.597 26.1849 113.597C23.8992 113.597 21.8824 115.076 21.8824 117.765C21.8824 122.202 28.4706 121.395 28.4706 125.025C28.4706 126.504 27.1261 127.445 25.5126 127.445C24.5714 127.445 23.3614 127.042 22.4202 126.37C22.2857 126.235 22.0168 126.37 21.8824 126.773L21.7479 127.042C21.479 127.445 21.479 127.714 21.6135 127.849C22.5546 128.521 24.0336 129.059 25.7815 129.059C28.874 129.059 30.4874 127.311 30.4874 124.756C30.4874 120.05 23.8992 120.588 23.8992 117.496C23.8992 116.42 24.7059 115.345 26.4538 115.345C27.5294 115.345 28.3361 115.613 29.0084 116.017C29.1429 116.151 29.4118 116.017 29.5462 115.613V115.345ZM40.437 117.765C39.7647 117.765 39.7647 117.765 39.6303 118.034L39.4958 118.975C38.958 118.168 37.8824 117.63 36.6723 117.63C33.9832 117.63 31.9664 119.916 31.9664 123.546C31.9664 126.504 33.3109 129.059 36.4034 129.059C37.7479 129.059 38.958 128.521 39.4958 127.58L39.6303 128.521C39.6303 128.655 39.7647 128.79 40.437 128.79H40.5715C41.2437 128.79 41.3782 128.655 41.3782 128.521C41.2437 127.445 41.2437 126.101 41.2437 124.084V121.126C41.2437 119.782 41.2437 118.437 41.2437 118.034C41.2437 117.899 41.2437 117.765 40.437 117.765ZM39.3614 123.681C39.3614 125.429 39.2269 126.101 38.8235 126.504C38.2857 127.042 37.479 127.311 36.8067 127.311C34.6555 127.311 33.9832 125.294 33.9832 123.412C33.9832 120.992 35.0588 119.378 36.9412 119.378C37.8824 119.378 38.8235 120.05 39.3614 120.723C39.3614 120.723 39.3614 123.681 39.3614 123.681ZM45.0084 112.924C44.3362 112.924 44.0672 113.059 44.0672 113.193C44.2017 114 44.2017 116.689 44.2017 118.84V125.832C44.2017 126.908 44.3362 127.58 44.6051 127.983C45.0084 128.521 45.5462 128.655 46.0841 128.655C46.353 128.655 46.7563 128.521 47.0252 128.521C47.1597 128.521 47.1597 128.387 47.1597 127.849V127.849C47.1597 127.445 47.1597 127.311 47.0252 127.311H46.8908C46.2185 127.311 46.0841 127.042 46.0841 126.235V119.378C46.0841 116.286 46.0841 113.866 45.9496 113.193C45.9496 113.059 45.8151 112.924 45.0084 112.924C45.0084 112.924 45.1429 112.924 45.0084 112.924ZM50.2521 117.765C49.4454 117.765 49.4454 117.899 49.4454 118.034V124.353C49.4454 125.966 49.7143 127.176 50.521 127.849C51.1933 128.521 52.1345 128.924 53.2101 128.924C54.6891 128.924 55.8992 128.387 56.5714 127.58V128.521C56.5714 128.655 56.7059 128.79 57.3782 128.79H57.5126C58.3193 128.79 58.3193 128.655 58.3193 128.521C58.3193 127.983 58.3193 126.504 58.3193 125.16V118.034C58.3193 117.899 58.1849 117.765 57.5126 117.765H57.3782C56.7059 117.765 56.5714 117.899 56.5714 118.034V123.143C56.5714 125.429 56.3025 126.101 55.8992 126.504C55.3614 127.042 54.4202 127.311 53.6135 127.311C52.8067 127.311 52.1345 127.042 51.7311 126.639C51.3278 126.101 51.1933 125.294 51.1933 123.546V118.034C51.1933 117.899 51.0588 117.765 50.3866 117.765H50.2521ZM69.0756 112.924C68.4034 112.924 68.2689 113.059 68.2689 113.193V118.168C67.7311 117.765 66.7899 117.496 65.9832 117.496C62.6219 117.496 61.0084 120.319 61.0084 123.412C61.0084 126.773 62.6219 128.924 65.4454 128.924C66.9244 128.924 68 128.252 68.5378 127.58C68.8067 128.387 69.3445 128.79 70.0168 128.79C70.4202 128.79 70.6891 128.79 70.958 128.655C71.0924 128.655 71.0925 128.521 71.0925 127.983V127.849C71.0925 127.445 70.958 127.311 70.958 127.311C70.4202 127.311 70.2857 127.176 70.2857 126.235V113.328C70.0168 113.059 69.8824 112.924 69.0756 112.924ZM68.2689 123.681C68.2689 125.429 68.1345 126.101 67.7311 126.639C67.1933 127.176 66.521 127.311 65.8488 127.311C64.2353 127.311 63.0252 125.966 63.0252 123.412C63.0252 120.857 64.2353 119.244 66.2521 119.244C67.0588 119.244 68 119.513 68.4034 120.05V123.681H68.2689ZM79.4286 118.034C79.4286 117.899 79.1597 117.765 78.3529 117.765C77.5462 117.765 77.2773 117.765 77.4118 118.034L81.4454 128.79C80.6387 131.076 79.8319 131.882 78.4874 131.882C78.084 131.882 77.6807 131.748 77.4118 131.748C77.1429 131.613 77.1429 131.748 77.0084 132.286L76.874 132.555C76.7395 132.958 76.7395 133.092 77.0084 133.227C77.4118 133.496 78.0841 133.63 78.6219 133.63C79.832 133.63 80.7731 133.227 81.7143 132.42C82.3866 131.748 82.9244 130.672 83.4622 129.059L87.3614 118.168C87.4958 117.899 87.2269 117.899 86.4202 117.899C85.7479 117.899 85.6135 117.899 85.479 118.168L83.5967 123.546C83.1933 124.756 82.7899 125.966 82.521 126.908C82.2521 125.832 81.9832 124.891 81.4454 123.412L79.4286 118.034ZM95.9664 124.487C95.9664 123.277 95.9664 122.202 96.1009 121.664C96.2353 120.723 96.3698 120.454 96.6387 120.185C97.1765 119.647 97.8488 119.378 98.6555 119.378C100.403 119.378 101.21 120.723 101.21 123.143C101.21 125.563 100 127.311 97.7143 127.311C97.1765 127.311 96.5042 127.176 95.9664 126.908V124.487ZM94.8908 112.924C94.084 112.924 93.9496 113.059 93.9496 113.193V127.983C93.9496 128.118 93.9496 128.118 94.0841 128.252C95.0252 128.655 96.2353 128.924 97.8487 128.924C101.345 128.924 103.092 126.639 103.092 123.008C103.092 121.798 102.824 120.723 102.42 119.916C101.748 118.437 100.538 117.63 98.9244 117.63C97.7143 117.63 96.5042 118.168 95.8319 118.84V113.193C95.9664 113.059 95.8319 112.924 94.8908 112.924ZM106.454 117.765C105.647 117.765 105.647 117.899 105.647 118.034V128.521C105.647 128.655 105.647 128.79 106.454 128.79H106.588C107.395 128.79 107.395 128.655 107.395 128.521V118.034C107.395 117.899 107.395 117.765 106.454 117.765C106.454 117.765 106.588 117.765 106.454 117.765ZM105.244 114.403C105.244 115.076 105.782 115.748 106.588 115.748C107.261 115.748 107.933 115.21 107.933 114.403C107.933 113.597 107.395 113.059 106.588 113.059C105.782 113.193 105.244 113.731 105.244 114.403ZM119.092 123.95C119.227 123.95 119.227 123.815 119.227 123.143C119.227 121.933 119.092 120.723 118.555 119.782C117.882 118.437 116.672 117.496 114.79 117.496C111.697 117.496 109.815 119.916 109.815 123.412C109.815 126.773 111.563 128.924 114.79 128.924C116.134 128.924 117.479 128.655 118.555 127.983C118.689 127.849 118.689 127.714 118.555 127.176L118.42 126.908C118.286 126.37 118.151 126.37 117.882 126.504C116.941 126.908 116 127.176 115.193 127.176C114.118 127.176 113.311 126.908 112.773 126.37C112.101 125.832 111.832 124.891 111.697 123.815L119.092 123.95ZM111.832 122.471C112.101 120.319 113.311 119.378 114.79 119.378C116.538 119.378 117.345 120.992 117.345 122.471H111.832ZM122.454 117.765C121.647 117.765 121.647 117.899 121.647 118.034C121.647 118.571 121.647 120.05 121.647 121.395V128.521C121.647 128.655 121.782 128.79 122.454 128.79H122.588C123.395 128.79 123.395 128.655 123.395 128.521V124.487C123.395 123.277 123.395 122.202 123.529 121.664C123.664 120.723 123.798 120.454 124.067 120.185C124.605 119.647 125.546 119.378 126.218 119.378C127.16 119.378 127.832 119.647 128.101 120.05C128.639 120.588 128.639 121.395 128.639 123.143V128.521C128.639 128.655 128.773 128.79 129.445 128.79H129.58C130.387 128.79 130.387 128.655 130.387 128.521V122.202C130.387 120.588 130.118 119.378 129.311 118.706C128.639 118.034 127.697 117.63 126.487 117.63C125.277 117.63 123.933 118.168 123.126 118.975V118.034C123.395 117.899 123.395 117.765 122.454 117.765ZM142.218 123.95C142.353 123.95 142.353 123.815 142.353 123.143C142.353 121.933 142.218 120.723 141.681 119.782C141.008 118.437 139.798 117.496 137.916 117.496C134.824 117.496 132.941 119.916 132.941 123.412C132.941 126.773 134.689 128.924 137.916 128.924C139.261 128.924 140.605 128.655 141.681 127.983C141.815 127.849 141.815 127.714 141.681 127.176L141.546 126.908C141.412 126.37 141.277 126.37 141.008 126.504C140.067 126.908 139.126 127.176 138.319 127.176C137.244 127.176 136.437 126.908 135.899 126.37C135.227 125.832 134.958 124.891 134.824 123.815L142.218 123.95ZM135.092 122.471C135.361 120.319 136.571 119.378 138.05 119.378C139.798 119.378 140.605 120.992 140.605 122.471H135.092ZM151.361 119.513C151.63 119.109 151.63 118.84 151.496 118.706C150.689 118.034 149.613 117.63 148.269 117.63C146.252 117.63 144.504 118.84 144.504 120.857C144.504 121.664 144.773 122.336 145.311 122.874C145.849 123.412 146.655 123.681 147.731 123.95C148.807 124.218 150.151 124.487 150.151 125.697C150.151 126.908 148.807 127.311 147.866 127.311C146.924 127.311 145.983 126.908 145.176 126.504C144.908 126.37 144.773 126.37 144.504 126.908L144.37 127.176C144.101 127.58 144.101 127.714 144.235 127.983C145.042 128.521 146.252 129.059 147.597 129.059C149.882 129.059 151.765 127.849 151.765 125.697C151.765 123.546 150.017 122.874 148.269 122.471C147.328 122.202 146.118 121.933 146.118 120.857C146.118 119.782 147.328 119.378 148.134 119.378C149.076 119.378 149.748 119.782 150.555 120.319C150.689 120.454 150.824 120.454 151.227 119.916L151.361 119.513ZM155.529 114.672C154.723 114.672 154.723 114.807 154.723 114.941V117.765H153.378C153.244 117.765 153.244 117.899 153.244 118.437V118.571C153.244 119.109 153.244 119.244 153.378 119.244H154.723V125.563C154.723 126.908 154.857 127.714 155.529 128.252C155.933 128.655 156.605 128.924 157.546 128.924C158.353 128.924 159.16 128.79 159.697 128.387C159.832 128.252 159.832 128.118 159.832 127.714L159.697 127.445C159.563 127.042 159.563 127.042 159.294 127.042C158.891 127.176 158.353 127.311 157.95 127.311C157.412 127.311 157.143 127.176 156.874 126.908C156.605 126.639 156.605 126.101 156.605 125.294V119.109H159.16C159.294 119.109 159.294 118.975 159.294 118.437C159.294 117.899 159.294 117.765 159.16 117.765H156.605V114.941C156.471 114.807 156.471 114.672 155.529 114.672ZM169.378 117.765C168.706 117.765 168.706 117.765 168.571 118.034L168.437 118.84C167.899 118.034 166.958 117.496 165.613 117.496C162.924 117.496 160.908 119.782 160.908 123.412C160.908 126.37 162.252 128.924 165.345 128.924C166.689 128.924 167.899 128.387 168.571 127.445L168.706 128.387C168.706 128.521 168.84 128.655 169.513 128.655H169.647C170.319 128.655 170.454 128.521 170.454 128.387C170.319 127.311 170.319 125.966 170.319 123.95V120.992C170.319 119.647 170.319 118.303 170.319 117.899C170.319 117.899 170.185 117.765 169.378 117.765C169.378 117.765 169.513 117.765 169.378 117.765ZM168.437 123.681C168.437 125.429 168.303 126.101 167.899 126.504C167.361 127.042 166.555 127.311 165.882 127.311C163.731 127.311 163.059 125.294 163.059 123.412C163.059 120.992 164.134 119.378 166.017 119.378C166.958 119.378 167.899 120.05 168.437 120.723V123.681ZM174.218 117.765C173.412 117.765 173.412 117.899 173.412 118.034C173.412 118.571 173.412 120.05 173.412 121.395V128.521C173.412 128.655 173.546 128.79 174.353 128.79H174.487C175.294 128.79 175.294 128.655 175.294 128.521V126.101C175.294 124.891 175.294 123.681 175.294 123.008C175.294 122.336 175.429 121.664 175.832 121.261C176.37 120.319 177.176 119.378 178.655 119.378C178.79 119.378 178.924 119.244 178.924 118.571V118.303C178.924 117.899 178.924 117.765 178.79 117.765C178.655 117.765 178.521 117.765 178.387 117.765C177.311 117.765 176.235 118.571 175.429 120.319V118.168C175.16 117.899 175.025 117.765 174.218 117.765C174.218 117.765 174.353 117.765 174.218 117.765Z" fill="black"/>
</svg>

<svg width="200" height="200" fill="none" xmlns="http://www.w3.org/2000/svg"><path fill="#fff" d="M0 0h200v200H0z"/><path d="M52.941 85.361c-.134-6.588-2.823-10.621-11.697-10.621 0 0-4.975-.135-4.975 0l-.135 13.714c-6.453.941-13.714 3.092-15.058 3.361l.134-25.277h17.882c11.294 0 18.69.807 23.799 6.05 2.285 2.286 4.437 5.647 4.84 11.698-5.11.269-9.68.403-14.79 1.075zm-.403 2.555c9.277-.941 15.597-1.345 15.597-1.345 0 5.648-2.286 10.084-5.513 12.773-4.437 3.631-8.874 4.572-20.572 4.572H21.346v-9.412c1.613-.403 8.47-2.554 14.924-3.361 0 0-.134 4.84 0 4.84h4.84c4.437-.269 11.294-2.285 11.429-8.067zM167.63 91.68c-4.571-1.21-8.605-2.554-12.638-3.36l8.336-21.648h15.327L167.63 91.681zm-32.538-6.722l-7.932-18.42h16.672l8.067 20.975c-6.05-1.21-11.294-1.883-16.807-2.555zm17.748 4.975s.673 1.613.807 1.344l.538-1.075c4.168.94 7.933 2.42 12.638 3.63l-4.033 9.95h-19.093l-7.395-16.538c5.513.672 10.488 1.479 16.538 2.689zm-41.949-6.319c-5.244-.135-12.101-.27-17.748-.27.134 0 13.176-16.806 13.176-16.806h18.286l-13.714 17.076zm-16.807 1.882c.538 0 11.563 0 17.882.538l14.656 17.748h-19.227L94.084 85.496zm-3.092 0v18.017H75.798V86.168c4.975-.269 9.816-.538 15.194-.672zm0-2.286c-5.513.135-10.353.135-15.328.538v-17.48h15.328V83.21zm-61.446 32.135c.135-.269.27-.673.135-.673-.807-.672-2.286-1.075-3.496-1.075-2.286 0-4.303 1.479-4.303 4.168 0 4.437 6.589 3.63 6.589 7.26 0 1.479-1.345 2.42-2.958 2.42-.942 0-2.152-.403-3.093-1.075-.134-.135-.403 0-.538.403l-.134.269c-.269.403-.269.672-.135.807.942.672 2.42 1.21 4.169 1.21 3.092 0 4.705-1.748 4.705-4.303 0-4.706-6.588-4.168-6.588-7.26 0-1.076.807-2.151 2.555-2.151 1.075 0 1.882.268 2.554.672.135.134.404 0 .538-.404v-.268zm10.891 2.42c-.672 0-.672 0-.807.269l-.134.941c-.538-.807-1.614-1.345-2.824-1.345-2.689 0-4.706 2.286-4.706 5.916 0 2.958 1.345 5.513 4.437 5.513 1.345 0 2.555-.538 3.093-1.479l.134.941c0 .134.135.269.807.269h.135c.672 0 .806-.135.806-.269-.134-1.076-.134-2.42-.134-4.437v-6.05c0-.135 0-.269-.807-.269zm-1.076 5.916c0 1.748-.134 2.42-.537 2.823-.538.538-1.345.807-2.017.807-2.151 0-2.824-2.017-2.824-3.899 0-2.42 1.076-4.034 2.958-4.034.941 0 1.883.672 2.42 1.345v2.958zm5.647-10.757c-.672 0-.94.135-.94.269.134.807.134 3.496.134 5.647v6.992c0 1.076.134 1.748.403 2.151.403.538.941.672 1.48.672.268 0 .671-.134.94-.134.135 0 .135-.134.135-.672 0-.404 0-.538-.135-.538h-.134c-.672 0-.807-.269-.807-1.076v-6.857c0-3.092 0-5.512-.134-6.185 0-.134-.135-.269-.942-.269 0 0 .135 0 0 0zm5.244 4.841c-.807 0-.807.134-.807.269v6.319c0 1.613.27 2.823 1.076 3.496.672.672 1.614 1.075 2.69 1.075 1.478 0 2.688-.537 3.36-1.344v.941c0 .134.135.269.807.269h.135c.806 0 .806-.135.806-.269v-10.487c0-.135-.134-.269-.806-.269h-.135c-.672 0-.807.134-.807.269v5.109c0 2.286-.268 2.958-.672 3.361-.538.538-1.479.807-2.285.807-.807 0-1.48-.269-1.883-.672-.403-.538-.538-1.345-.538-3.093v-5.512c0-.135-.134-.269-.806-.269h-.135zm18.824-4.841c-.673 0-.807.135-.807.269v4.975c-.538-.403-1.48-.672-2.286-.672-3.361 0-4.975 2.823-4.975 5.916 0 3.361 1.614 5.512 4.437 5.512 1.48 0 2.555-.672 3.093-1.344.269.807.806 1.21 1.479 1.21.403 0 .672 0 .941-.135.134 0 .135-.134.135-.672v-.134c0-.404-.135-.538-.135-.538-.538 0-.672-.135-.672-1.076v-12.907c-.27-.269-.404-.404-1.21-.404zm-.807 10.757c0 1.748-.135 2.42-.538 2.958-.538.537-1.21.672-1.882.672-1.614 0-2.824-1.345-2.824-3.899 0-2.555 1.21-4.168 3.227-4.168.807 0 1.748.269 2.151.806v3.631h-.134zm11.16-5.647c0-.135-.27-.269-1.076-.269-.807 0-1.076 0-.941.269l4.033 10.756c-.806 2.286-1.613 3.092-2.958 3.092-.403 0-.806-.134-1.075-.134-.27-.135-.27 0-.404.538l-.134.269c-.134.403-.134.537.134.672.404.269 1.076.403 1.614.403 1.21 0 2.151-.403 3.092-1.21.673-.672 1.21-1.748 1.748-3.361l3.9-10.891c.134-.269-.135-.269-.942-.269-.672 0-.806 0-.941.269l-1.882 5.378c-.404 1.21-.807 2.42-1.076 3.362a31.933 31.933 0 00-1.076-3.496l-2.016-5.378zm16.537 6.453c0-1.21 0-2.285.135-2.823.134-.941.269-1.21.538-1.479.538-.538 1.21-.807 2.017-.807 1.747 0 2.554 1.345 2.554 3.765s-1.21 4.168-3.496 4.168c-.537 0-1.21-.135-1.748-.403v-2.421zm-1.075-11.563c-.807 0-.941.135-.941.269v14.79c0 .135 0 .135.134.269.941.403 2.151.672 3.765.672 3.496 0 5.243-2.285 5.243-5.916 0-1.21-.268-2.285-.672-3.092-.672-1.479-1.882-2.286-3.496-2.286-1.21 0-2.42.538-3.092 1.21v-5.647c.134-.134 0-.269-.941-.269zm11.563 4.841c-.807 0-.807.134-.807.269v10.487c0 .134 0 .269.807.269h.134c.807 0 .807-.135.807-.269v-10.487c0-.135 0-.269-.941-.269 0 0 .134 0 0 0zm-1.21-3.362c0 .673.538 1.345 1.344 1.345.673 0 1.345-.538 1.345-1.345 0-.806-.538-1.344-1.345-1.344-.806.134-1.344.672-1.344 1.344zm13.848 9.547c.135 0 .135-.135.135-.807 0-1.21-.135-2.42-.672-3.361-.673-1.345-1.883-2.286-3.765-2.286-3.093 0-4.975 2.42-4.975 5.916 0 3.361 1.748 5.512 4.975 5.512 1.344 0 2.689-.269 3.765-.941.134-.134.134-.269 0-.807l-.135-.268c-.134-.538-.269-.538-.538-.404-.941.404-1.882.672-2.689.672-1.075 0-1.882-.268-2.42-.806-.672-.538-.941-1.479-1.076-2.555l7.395.135zm-7.26-1.479c.269-2.152 1.479-3.093 2.958-3.093 1.748 0 2.555 1.614 2.555 3.093h-5.513zm10.622-4.706c-.807 0-.807.134-.807.269v10.487c0 .134.135.269.807.269h.134c.807 0 .807-.135.807-.269v-4.034c0-1.21 0-2.285.134-2.823.135-.941.269-1.21.538-1.479.538-.538 1.479-.807 2.151-.807.942 0 1.614.269 1.883.672.538.538.538 1.345.538 3.093v5.378c0 .134.134.269.806.269h.135c.807 0 .807-.135.807-.269v-6.319c0-1.614-.269-2.824-1.076-3.496-.672-.672-1.614-1.076-2.824-1.076-1.21 0-2.554.538-3.361 1.345v-.941c.269-.135.269-.269-.672-.269zm19.764 6.185c.135 0 .135-.135.135-.807 0-1.21-.135-2.42-.672-3.361-.673-1.345-1.883-2.286-3.765-2.286-3.092 0-4.975 2.42-4.975 5.916 0 3.361 1.748 5.512 4.975 5.512 1.345 0 2.689-.269 3.765-.941.134-.134.134-.269 0-.807l-.135-.268c-.134-.538-.269-.538-.538-.404-.941.404-1.882.672-2.689.672-1.075 0-1.882-.268-2.42-.806-.672-.538-.941-1.479-1.075-2.555l7.394.135zm-7.126-1.479c.269-2.152 1.479-3.093 2.958-3.093 1.748 0 2.555 1.614 2.555 3.093h-5.513zm16.269-2.958c.269-.404.269-.673.135-.807-.807-.672-1.883-1.076-3.227-1.076-2.017 0-3.765 1.21-3.765 3.227 0 .807.269 1.479.807 2.017.538.538 1.344.807 2.42 1.076 1.076.268 2.42.537 2.42 1.747 0 1.211-1.344 1.614-2.285 1.614-.942 0-1.883-.403-2.69-.807-.268-.134-.403-.134-.672.404l-.134.268c-.269.404-.269.538-.135.807.807.538 2.017 1.076 3.362 1.076 2.285 0 4.168-1.21 4.168-3.362 0-2.151-1.748-2.823-3.496-3.226-.941-.269-2.151-.538-2.151-1.614 0-1.075 1.21-1.479 2.016-1.479.942 0 1.614.404 2.421.941.134.135.269.135.672-.403l.134-.403zm4.168-4.841c-.806 0-.806.135-.806.269v2.824h-1.345c-.134 0-.134.134-.134.672v.134c0 .538 0 .673.134.673h1.345v6.319c0 1.345.134 2.151.806 2.689.404.403 1.076.672 2.017.672.807 0 1.614-.134 2.151-.537.135-.135.135-.269.135-.673l-.135-.269c-.134-.403-.134-.403-.403-.403-.403.134-.941.269-1.344.269-.538 0-.807-.135-1.076-.403-.269-.269-.269-.807-.269-1.614v-6.185h2.555c.134 0 .134-.134.134-.672s0-.672-.134-.672h-2.555v-2.824c-.134-.134-.134-.269-1.076-.269zm13.849 3.093c-.672 0-.672 0-.807.269l-.134.806c-.538-.806-1.479-1.344-2.824-1.344-2.689 0-4.705 2.286-4.705 5.916 0 2.958 1.344 5.512 4.437 5.512 1.344 0 2.554-.537 3.226-1.479l.135.942c0 .134.134.268.807.268h.134c.672 0 .807-.134.807-.268-.135-1.076-.135-2.421-.135-4.437v-6.051s-.134-.134-.941-.134c0 0 .135 0 0 0zm-.941 5.916c0 1.748-.134 2.42-.538 2.823-.538.538-1.344.807-2.017.807-2.151 0-2.823-2.017-2.823-3.899 0-2.42 1.075-4.034 2.958-4.034.941 0 1.882.672 2.42 1.345v2.958zm5.781-5.916c-.806 0-.806.134-.806.269v10.487c0 .134.134.269.941.269h.134c.807 0 .807-.135.807-.269v-5.513c0-.672.135-1.344.538-1.747.538-.942 1.344-1.883 2.823-1.883.135 0 .269-.134.269-.807v-.268c0-.404 0-.538-.134-.538h-.403c-1.076 0-2.152.806-2.958 2.554v-2.151c-.269-.269-.404-.403-1.211-.403 0 0 .135 0 0 0z" fill="#000"/></svg>
